X:2126
T:Tra va mish my ghuilley beg as reeagh - Admiral Benbow 
C:Tom Kermode, Bradda 
C:Traditional
O:Isle of Man
Z:Clague collection
B:Kiaull Vannin #126 
M:3/4 
L:1/4
Q:140 
K:D 
E|E B B|B A B/c/|d B G|F2 F|G F G|A G A|B/A/ G A|B2 E| 
G/A/ B d|c A c/d/|e B G|F2 G/A/|B e d|c B E/F/|G A {G}F|E2|| 

